src/pos-icons/keyboard-settings.svg

<svg height="24" viewBox="0 0 24 24" width="24" xmlns="http://www.w3.org/2000/svg"><path d="m19 10h-2v-2h2m0 5h-2v-2h2m-3-1h-2v-2h2m0 5h-2v-2h2m0 6h-8v-2h8m-9-5h-2v-2h2m0 5h-2v-2h2m1 0h2v2h-2m0-5h2v2h-2m3 1h2v2h-2m0-5h2v2h-2m9-5h-16a2 2 0 0 0 -2 2v10a2 2 0 0 0 2 2h16a2 2 0 0 0 2-2v-10a2 2 0 0 0 -2-2m-13 17h2v2h-2zm4 0h2v2h-2zm4 0h2v2h-2z"/></svg>

<?xml version="1.0" encoding="UTF-8"?><!DOCTYPE svg PUBLIC "-//W3C//DTD SVG 1.1//EN" "http://www.w3.org/Graphics/SVG/1.1/DTD/svg11.dtd"><svg xmlns="http://www.w3.org/2000/svg" xmlns:xlink="http://www.w3.org/1999/xlink" version="1.1" id="mdi-keyboard-settings" width="24" height="24" viewBox="0 0 24 24"><path d="M19,10H17V8H19M19,13H17V11H19M16,10H14V8H16M16,13H14V11H16M16,17H8V15H16M7,10H5V8H7M7,13H5V11H7M8,11H10V13H8M8,8H10V10H8M11,11H13V13H11M11,8H13V10H11M20,5H4A2,2 0 0,0 2,7V17A2,2 0 0,0 4,19H20A2,2 0 0,0 22,17V7A2,2 0 0,0 20,5M7,22H9V24H7V22M11,22H13V24H11V22M15,22H17V24H15V22Z" /></svg>
